!!!OTL: Fahr mir nit ueber mein Aeckerchen, fahr mir nit ueber mein Wies
!!!ARE: Europa, Mitteleuropa, Deutschland, Untermainfranken, Spessart
!!!SCT: D0165
!!!YEM: Copyright 1995, estate of Helmut Schaffrath.
**kern
*ICvox
*Ivox
*M3/4
*k[f#]
*G:
{4.dd
8dd
4dd
=1
4ee
4dd
4cc
=2
4b
4b
4b}
=3
{4.dd
8dd
4dd
=4
4ee
4dd
4cc
=5
2b
4r}
=6
{4.b
8a
4b
=7
4cc
4b
4a
=8
4.dd
8dd
4dd}
=9
{4.b
8b
4b
=10
4cc
4b
4a
=11
2g
4r}
==
!!!AGN: Tanz - Lied
!! Inzipit = Variante zum Lied
!!!ONB: ESAC (Essen Associative Code) Database: DVA
!!!AMT: simple triple
!!!AIN: vox
!!!EED: Helmut Schaffrath
!!!EEV: 1.0
*-
